icon/ir/open-vpn.svg

<svg stroke-width="1.5" viewBox="0 0 24 24" fill="none" xmlns="http://www.w3.org/2000/svg" height="1em" width="1em">
  <path d="M10.8351 15.2894L11.5726 15.426L10.8351 15.2894ZM10.4771 14.582L10.8583 13.9361L10.4771 14.582ZM10.2016 21.8286L10.3402 21.0915L10.2016 21.8286ZM9.75001 21.1507L10.4875 21.2872L9.75001 21.1507ZM16.8489 19.8141L17.586 19.6755L16.8489 19.8141ZM17.7212 20.1916L17.2912 19.5771L17.7212 20.1916ZM7.87166 15.9841L7.13459 15.8455L7.87166 15.9841ZM7.73203 15.4643L7.15066 15.9381L7.73203 15.4643ZM13.5232 14.582L13.9045 15.2279L13.5232 14.582ZM13.1652 15.2894L13.9027 15.1529L13.1652 15.2894ZM16.268 15.4643L15.6866 14.9905L16.268 15.4643ZM16.1283 15.9841L16.8654 15.8455L16.1283 15.9841ZM14.2501 21.1513L13.5126 21.2878L14.2501 21.1513ZM13.7972 21.8297L13.9347 22.567L13.7972 21.8297ZM6.27883 20.1916L5.84889 20.8061L6.27883 20.1916ZM2.75 12C2.75 6.89078 6.89078 2.75 12 2.75V1.25C6.06235 1.25 1.25 6.06235 1.25 12H2.75ZM6.70878 19.5771C4.3153 17.9025 2.75 15.1368 2.75 12H1.25C1.25 15.6498 3.07379 18.8646 5.84889 20.8061L6.70878 19.5771ZM7.13459 15.8455L6.41403 19.6755L7.88817 19.9528L8.60873 16.1228L7.13459 15.8455ZM5.75 12C5.75 13.4936 6.27575 14.8646 7.15066 15.9381L8.3134 14.9905C7.64834 14.1745 7.25 13.1354 7.25 12H5.75ZM12 5.75C8.54868 5.75 5.75 8.54868 5.75 12H7.25C7.25 9.3771 9.3771 7.25 12 7.25V5.75ZM18.25 12C18.25 8.54868 15.4513 5.75 12 5.75V7.25C14.6229 7.25 16.75 9.3771 16.75 12H18.25ZM16.8493 15.9381C17.7243 14.8646 18.25 13.4936 18.25 12H16.75C16.75 13.1354 16.3517 14.1745 15.6866 14.9905L16.8493 15.9381ZM17.586 19.6755L16.8654 15.8455L15.3913 16.1228L16.1118 19.9528L17.586 19.6755ZM21.25 12C21.25 15.1368 19.6847 17.9025 17.2912 19.5771L18.1511 20.8061C20.9262 18.8646 22.75 15.6498 22.75 12H21.25ZM12 2.75C17.1092 2.75 21.25 6.89078 21.25 12H22.75C22.75 6.06235 17.9377 1.25 12 1.25V2.75ZM15.7502 12C15.7502 9.92949 14.0706 8.24996 12.0002 8.24996V9.74996C13.2422 9.74996 14.2502 10.7579 14.2502 12H15.7502ZM13.9045 15.2279C15.0061 14.5777 15.7502 13.3768 15.7502 12H14.2502C14.2502 12.8229 13.8068 13.5437 13.142 13.9361L13.9045 15.2279ZM14.9876 21.0148L13.9027 15.1529L12.4277 15.4259L13.5126 21.2878L14.9876 21.0148ZM12.0002 22.75C12.6654 22.75 13.3108 22.6834 13.9347 22.567L13.6597 21.0925C13.118 21.1935 12.5649 21.25 12.0002 21.25V22.75ZM10.063 22.5657C10.688 22.6832 11.3343 22.75 12.0002 22.75V21.25C11.435 21.25 10.8817 21.1934 10.3402 21.0915L10.063 22.5657ZM10.0977 15.1529L9.01255 21.0141L10.4875 21.2872L11.5726 15.426L10.0977 15.1529ZM8.25018 12C8.25018 13.3767 8.99426 14.5776 10.0958 15.2279L10.8583 13.9361C10.1935 13.5437 9.75018 12.8229 9.75018 12H8.25018ZM12.0002 8.24996C9.92971 8.24996 8.25018 9.92949 8.25018 12H9.75018C9.75018 10.7579 10.7581 9.74996 12.0002 9.74996V8.24996ZM11.5726 15.426C11.6951 14.7643 11.3142 14.2052 10.8583 13.9361L10.0958 15.2279C10.1005 15.2306 10.1042 15.2337 10.1066 15.2361C10.1089 15.2386 10.1082 15.2386 10.1061 15.2346C10.1039 15.2304 10.0997 15.2209 10.0971 15.2059C10.0944 15.1902 10.0942 15.1718 10.0977 15.1529L11.5726 15.426ZM10.3402 21.0915C10.4587 21.1138 10.5 21.2197 10.4875 21.2872L9.01255 21.0141C8.88408 21.708 9.3184 22.4256 10.063 22.5657L10.3402 21.0915ZM16.1118 19.9528C16.2796 20.8445 17.3238 21.385 18.1511 20.8061L17.2912 19.5771C17.3508 19.5354 17.4317 19.533 17.4888 19.5582C17.5413 19.5813 17.577 19.6277 17.586 19.6755L16.1118 19.9528ZM8.60873 16.1228C8.6883 15.6999 8.55779 15.2903 8.3134 14.9905L7.15066 15.9381C7.14395 15.9299 7.12459 15.8987 7.13459 15.8455L8.60873 16.1228ZM13.142 13.9361C12.6861 14.2052 12.3053 14.7642 12.4277 15.4259L13.9027 15.1529C13.9062 15.1718 13.9059 15.1903 13.9032 15.2059C13.9006 15.2209 13.8964 15.2304 13.8942 15.2346C13.8921 15.2386 13.8914 15.2386 13.8938 15.2362C13.8961 15.2337 13.8998 15.2307 13.9045 15.2279L13.142 13.9361ZM15.6866 14.9905C15.4422 15.2903 15.3117 15.6999 15.3913 16.1228L16.8654 15.8455C16.8754 15.8987 16.8561 15.9299 16.8493 15.9381L15.6866 14.9905ZM13.5126 21.2878C13.5001 21.22 13.5417 21.1145 13.6597 21.0925L13.9347 22.567C14.68 22.428 15.1163 21.7101 14.9876 21.0148L13.5126 21.2878ZM5.84889 20.8061C6.67624 21.385 7.72041 20.8445 7.88817 19.9528L6.41403 19.6755C6.42302 19.6277 6.45865 19.5813 6.51117 19.5582C6.56834 19.533 6.64921 19.5354 6.70878 19.5771L5.84889 20.8061Z" fill="currentColor"/>
</svg>

<svg width="24" height="24" stroke-width="1.5" fill="none" xmlns="http://www.w3.org/2000/svg"><path d="m10.835 15.29.738.136-.738-.137Zm-.358-.708.381-.646-.38.646Zm-.275 7.247.138-.738-.138.738Zm-.452-.678.738.136-.738-.136Zm7.099-1.337.737-.139-.737.14Zm.872.378-.43-.615.43.615Zm-9.85-4.208-.736-.139.737.14Zm-.139-.52-.581.474.581-.474Zm5.791-.882.382.646-.382-.646Zm-.358.707.738-.136-.738.136Zm3.103.175-.581-.473.581.473Zm-.14.52.737-.139-.737.14Zm-1.878 5.167-.737.137.737-.137Zm-.453.679.138.737-.138-.737ZM6.28 20.192l-.43.614.43-.614ZM2.75 12A9.25 9.25 0 0 1 12 2.75v-1.5C6.062 1.25 1.25 6.062 1.25 12h1.5Zm3.959 7.577C4.315 17.902 2.75 15.137 2.75 12h-1.5c0 3.65 1.824 6.865 4.599 8.806l.86-1.229Zm.426-3.732-.721 3.83 1.474.278.72-3.83-1.473-.278ZM5.75 12c0 1.494.526 2.865 1.4 3.938l1.163-.947A4.713 4.713 0 0 1 7.25 12h-1.5ZM12 5.75A6.25 6.25 0 0 0 5.75 12h1.5A4.75 4.75 0 0 1 12 7.25v-1.5ZM18.25 12A6.25 6.25 0 0 0 12 5.75v1.5A4.75 4.75 0 0 1 16.75 12h1.5Zm-1.4 3.938A6.213 6.213 0 0 0 18.25 12h-1.5a4.713 4.713 0 0 1-1.063 2.99l1.162.948Zm.736 3.737-.72-3.83-1.475.278.72 3.83 1.475-.277ZM21.25 12c0 3.137-1.565 5.902-3.959 7.577l.86 1.23C20.926 18.864 22.75 15.65 22.75 12h-1.5ZM12 2.75A9.25 9.25 0 0 1 21.25 12h1.5c0-5.938-4.812-10.75-10.75-10.75v1.5ZM15.75 12A3.75 3.75 0 0 0 12 8.25v1.5A2.25 2.25 0 0 1 14.25 12h1.5Zm-1.845 3.228A3.745 3.745 0 0 0 15.75 12h-1.5c0 .823-.443 1.544-1.108 1.936l.763 1.292Zm1.083 5.787-1.085-5.862-1.475.273 1.085 5.862 1.475-.273ZM12 22.75c.665 0 1.31-.067 1.935-.183l-.275-1.474a9.036 9.036 0 0 1-1.66.157v1.5Zm-1.937-.184c.625.117 1.271.184 1.937.184v-1.5a8.958 8.958 0 0 1-1.66-.159l-.277 1.475Zm.035-7.413-1.085 5.861 1.475.273 1.085-5.861-1.475-.273ZM8.25 12c0 1.377.744 2.578 1.846 3.228l.762-1.292A2.245 2.245 0 0 1 9.75 12h-1.5ZM12 8.25A3.75 3.75 0 0 0 8.25 12h1.5A2.25 2.25 0 0 1 12 9.75v-1.5Zm-.427 7.176c.122-.662-.259-1.22-.715-1.49l-.762 1.292a.053.053 0 0 1 .01.008c.003.003.002.003 0-.001a.1.1 0 0 1-.009-.03.153.153 0 0 1 0-.052l1.476.273Zm-1.233 5.665c.119.023.16.129.148.196l-1.475-.273c-.129.694.305 1.412 1.05 1.552l.277-1.474Zm5.772-1.138c.168.892 1.212 1.432 2.04.853l-.86-1.229a.21.21 0 0 1 .197-.019c.052.023.088.07.097.117l-1.474.278Zm-7.503-3.83c.08-.423-.051-.833-.296-1.133l-1.162.948c-.007-.008-.026-.04-.016-.093l1.474.278Zm4.533-2.187c-.456.27-.837.828-.714 1.49l1.475-.273a.153.153 0 0 1 0 .053.1.1 0 0 1-.009.029c-.002.004-.003.004 0 .001a.05.05 0 0 1 .01-.008l-.762-1.292Zm2.545 1.055c-.245.3-.375.709-.296 1.132l1.474-.278c.01.054-.009.085-.016.093l-1.162-.947Zm-2.174 6.297a.174.174 0 0 1 .147-.195l.275 1.474c.745-.139 1.181-.857 1.053-1.552l-1.475.273Zm-7.664-.482c.827.579 1.871.038 2.04-.853l-1.475-.277a.166.166 0 0 1 .097-.118.21.21 0 0 1 .198.02l-.86 1.228Z" fill="currentColor"/></svg>
